svg/u1f40d.svg

<svg viewBox="0 0 128 128" xmlns="http://www.w3.org/2000/svg">
  <path d="M48.65,76.52c0,0,8.99-6.82,22.43-6.57c19.9,0.38,24.12,9.85,24.12,9.85l3.19,15.02 c0,0,6.01,1.78,7.88,1.97c1.88,0.19,5.54,1.17,9.95-1.92c4.41-3.1,3.28-6.52,5.44-6.43c2.82,0.12,0.84,9.57-1.6,12.58 c-2.44,3-13.33,8.73-17.93,9.95s-6.01,3.14-10.79,3.24c-4.79,0.09-16.8-3.14-16.8-3.14l-25.9-12.2V76.52z" fill="#96A820"/>
  <path d="M58.13,96.23c0,0,3.94-7.04,10.98-6.48s9.57,5.54,9.57,5.54l-15.58,5.07L58.13,96.23z" fill="#70853B"/>
  <path d="M94.26,105.34c4.97,1.6,6.85,1.41,6.85,1.41s2.91-3.1,4.13-5.73c1.22-2.63,1.36-4.13,1.36-4.13 s-1.92-0.47-3.71-1.03c-1.78-0.56-5.35-2.63-5.35-2.63l-4.13,11.36L94.26,105.34z" fill="#70853B"/>
  <path d="M50.62,5.71c14.64,0.7,27.28,13.75,22.95,30.83c-3.24,12.76-14.51,29.64-17.32,33.97 c-5.16,7.98-10.7,23.46,4.83,25.11c22.21,2.35,5.81-9.83,16.67-17.34c5.7-3.94,12.19-2.7,16.37,0.3 c5.45,3.92,20.62,46.06-34.91,43.13c-11.54-0.61-20.71-6.97-25.76-11.83c-14.95-14.36-3.48-38.3-2.53-40.4 C32.18,66.67,44,51.32,43.16,46.4c-0.84-4.93-4.93-3.66-10.56-5.63c-5.63-1.97-11.88-8.2-10.14-16.75 C24.08,16.06,30.22,4.73,50.62,5.71z" fill="#BED04A"/>
  <path d="M92.15,114.46c0,0,2.72-2.46,3.66-3.21c0.94-0.75,5.3-4.5,5.3-4.5s6.93-0.25,11.73-2.25 c5.96-2.49,9.43-8.73,9.9-10.93c0.25-1.19-0.61,10.7-9.15,16.47C105.34,115.61,92.15,114.46,92.15,114.46z" fill="#E4DDA2"/>
  <path d="M22.53,86.87c-0.33,12.53,9.91,25.73,18.79,29.28c4.93,1.97-15.77-7.67-14.08-28.23 c1.34-16.35,17.81-30.27,18.16-39.56c0.21-5.63-6.76-6.12-6.76-6.12s2.16,1.62,2.25,3.73c0.14,3.38-8.59,15.77-10.42,18.3 C28.66,66.81,22.82,76.17,22.53,86.87z" fill="#E4DDA2"/>
  <path d="M25,30.07l4.32,4.69c0.21-0.29-4.72,4.71-9.29,8.07c-3.06,2.25-12.48,7.07-12.98,6.59 c-0.63-0.61,2.28-2.53,3.87-3.94c1.21-1.07,4.22-3.78,4.22-3.78s-3.71,0.4-5.49,0.4s-6.33,0.14-5.91-0.7 c0.33-0.66,6.88-1.7,9.34-2.7C20.49,35.7,25,30.07,25,30.07z" fill="#EE6D33"/>
  <path d="M42.88,15.21C40.31,17,37.81,16.55,37,15.05c-0.6-1.12-0.77-3.24,1.6-5.03 c2.09-1.58,4.77-1.1,5.75,0.26C45.17,11.43,44.83,13.86,42.88,15.21z" fill="#323234"/>
  <path d="M54.91,26.87c-3.07,1.8-5.56,0.87-6.62-0.76c-0.86-1.33-0.66-4.53,1.83-5.97 c2.58-1.5,5.44-0.96,6.54,0.83C57.58,22.47,57.25,25.5,54.91,26.87z" fill="#323234"/>
  <path d="M66.67,43.49c-1.83,4.25,1.83,6.22,1.83,6.22s1.43-3.05,2.04-4.43c0.75-1.71,1.48-3.84,1.48-3.84 S68.13,40.09,66.67,43.49z" fill="#E4DDA2"/>
  <path d="M64.84,56.46c0,0-2.53-0.28-4.79-1.06c-2.05-0.71-5.5-3.6-7.6,0.14c-1.94,3.45,1.31,5.35,3.87,6.41 c2.39,0.99,4.54,1.34,4.54,1.34s1.64-2.75,2.11-3.52C63.44,59,64.84,56.46,64.84,56.46z" fill="#E4DDA2"/>
  <path d="M56.25,70.52c0,0-3.38-0.19-5.56-0.75c-1.91-0.49-5.4-2.82-7.32,0.21c-1.71,2.7,0.77,4.84,4.08,5.7 c3.66,0.95,5.77,0.67,5.77,0.67s0.88-1.79,1.23-2.78C54.82,72.56,56.25,70.52,56.25,70.52z" fill="#E4DDA2"/>
  <path d="M51.02,83.37c0,0-4.08,0.56-6.05,0.56c-2.04,0-7.2-0.48-7.09,4.27c0.09,4.08,5.62,3.74,7.04,3.71 c2.02-0.05,7.29-1,7.29-1s-0.9-1.6-1.16-3.84C50.85,85.43,51.02,83.37,51.02,83.37z" fill="#E4DDA2"/>
  <path d="M55.12,93.84c0,0-0.66,2.97-1.62,5.14c-1.06,2.39-3.52,6.48,1.48,8.38c4.62,1.76,6.48-1.55,7.32-5.28 c0.78-3.47,0.84-6.3,0.84-6.3s-2.44-0.11-4.46-0.57C57.06,94.82,55.12,93.84,55.12,93.84z" fill="#E4DDA2"/>
  <path d="M70.82,95.27c0,0,3.31,2.89,4.36,4.36c1.06,1.48,3.47,5.94,7.32,4.01c3.38-1.69,0.65-6.85-0.99-8.73 c-1.37-1.57-3.45-3.28-5.42-4.41c-1.32-0.75-2.44-0.94-2.44-0.94s0.23,2.06-0.38,3.52C72.63,94.65,70.82,95.27,70.82,95.27z" fill="#E4DDA2"/>
  <path d="M75.19,85.53c0.34,1.16,1.35,1.21,3.59,0.28c2.39-0.99,5.63-1.48,8.31-1.48 c3.17,0,6.26,2.11,7.39,3.03s2.49,1.24,2.7-0.52c0.21-1.76-1.06-3.73-3.52-5.49c-1.5-1.07-4.18-2.72-7.34-2.79 c-3.37-0.07-6.48,1.13-8.45,2.39C76.65,81.74,74.62,83.63,75.19,85.53z" fill="#E4DDA2"/>
</svg>

<svg viewBox="0 0 128 128" xmlns="http://www.w3.org/2000/svg">
  <defs/>
  <path d="M48.65,76.52 C48.65,76.52 57.64,69.7 71.08,69.95 C90.98,70.33 95.2,79.8 95.2,79.8 L98.39,94.82 C98.39,94.82 104.4,96.6 106.27,96.79 C108.15,96.98 111.81,97.96 116.22,94.87 C120.63,91.77 119.5,88.35 121.66,88.44 C124.48,88.56 122.5,98.01 120.06,101.02 C117.62,104.02 106.73,109.75 102.13,110.97 C97.53,112.19 96.12,114.11 91.34,114.21 C86.55,114.3 74.54,111.07 74.54,111.07 L48.64,98.87 L48.64,76.52 Z" fill="#96A820"/>
  <path d="M58.13,96.23 C58.13,96.23 62.07,89.19 69.11,89.75 C76.15,90.31 78.68,95.29 78.68,95.29 L63.1,100.36 L58.13,96.23 Z" fill="#70853B"/>
  <path d="M94.26,105.34 C99.23,106.94 101.11,106.75 101.11,106.75 C101.11,106.75 104.02,103.65 105.24,101.02 C106.46,98.39 106.6,96.89 106.6,96.89 C106.6,96.89 104.68,96.42 102.89,95.86 C101.11,95.3 97.54,93.23 97.54,93.23 L93.41,104.59 L94.26,105.34 Z" fill="#70853B"/>
  <path d="M50.62,5.71 C65.26,6.41 77.9,19.46 73.57,36.54 C70.33,49.3 59.06,66.18 56.25,70.51 C51.09,78.49 45.55,93.97 61.08,95.62 C83.29,97.97 66.89,85.79 77.75,78.28 C83.45,74.34 89.94,75.58 94.12,78.58 C99.57,82.5 114.74,124.64 59.21,121.71 C47.67,121.1 38.5,114.74 33.45,109.88 C18.5,95.52 29.97,71.58 30.92,69.48 C32.18,66.67 44,51.32 43.16,46.4 C42.32,41.47 38.23,42.74 32.6,40.77 C26.97,38.8 20.72,32.57 22.46,24.02 C24.08,16.06 30.22,4.73 50.62,5.71 Z" fill="#BED04A"/>
  <path d="M92.15,114.46 C92.15,114.46 94.87,112 95.81,111.25 C96.75,110.5 101.11,106.75 101.11,106.75 C101.11,106.75 108.04,106.5 112.84,104.5 C118.8,102.01 122.27,95.77 122.74,93.57 C122.99,92.38 122.13,104.27 113.59,110.04 C105.34,115.61 92.15,114.46 92.15,114.46 Z" fill="#E4DDA2"/>
  <path d="M22.53,86.87 C22.2,99.4 32.44,112.6 41.32,116.15 C46.25,118.12 25.55,108.48 27.24,87.92 C28.58,71.57 45.05,57.65 45.4,48.36 C45.61,42.73 38.64,42.24 38.64,42.24 C38.64,42.24 40.8,43.86 40.89,45.97 C41.03,49.35 32.3,61.74 30.47,64.27 C28.66,66.81 22.82,76.17 22.53,86.87 Z" fill="#E4DDA2"/>
  <path d="M25,30.07 L29.32,34.76 C29.53,34.47 24.6,39.47 20.03,42.83 C16.97,45.08 7.55,49.9 7.05,49.42 C6.42,48.81 9.33,46.89 10.92,45.48 C12.13,44.41 15.14,41.7 15.14,41.7 C15.14,41.7 11.43,42.1 9.65,42.1 C7.87,42.1 3.32,42.24 3.74,41.4 C4.07,40.74 10.62,39.7 13.08,38.7 C20.49,35.7 25,30.07 25,30.07 Z" fill="#EE6D33"/>
  <path d="M42.88,15.21 C40.31,17 37.81,16.55 37,15.05 C36.4,13.93 36.23,11.81 38.6,10.02 C40.69,8.44 43.37,8.92 44.35,10.28 C45.17,11.43 44.83,13.86 42.88,15.21 Z" fill="#323234"/>
  <path d="M54.91,26.87 C51.84,28.67 49.35,27.74 48.29,26.11 C47.43,24.78 47.63,21.58 50.12,20.14 C52.7,18.64 55.56,19.18 56.66,20.97 C57.58,22.47 57.25,25.5 54.91,26.87 Z" fill="#323234"/>
  <path d="M66.67,43.49 C64.84,47.74 68.5,49.71 68.5,49.71 C68.5,49.71 69.93,46.66 70.54,45.28 C71.29,43.57 72.02,41.44 72.02,41.44 C72.02,41.44 68.13,40.09 66.67,43.49 Z" fill="#E4DDA2"/>
  <path d="M64.84,56.46 C64.84,56.46 62.31,56.18 60.05,55.4 C58,54.69 54.55,51.8 52.45,55.54 C50.51,58.99 53.76,60.89 56.32,61.95 C58.71,62.94 60.86,63.29 60.86,63.29 C60.86,63.29 62.5,60.54 62.97,59.77 C63.44,59 64.84,56.46 64.84,56.46 Z" fill="#E4DDA2"/>
  <path d="M56.25,70.52 C56.25,70.52 52.87,70.33 50.69,69.77 C48.78,69.28 45.29,66.95 43.37,69.98 C41.66,72.68 44.14,74.82 47.45,75.68 C51.11,76.63 53.22,76.35 53.22,76.35 C53.22,76.35 54.1,74.56 54.45,73.57 C54.82,72.56 56.25,70.52 56.25,70.52 Z" fill="#E4DDA2"/>
  <path d="M51.02,83.37 C51.02,83.37 46.94,83.93 44.97,83.93 C42.93,83.93 37.77,83.45 37.88,88.2 C37.97,92.28 43.5,91.94 44.92,91.91 C46.94,91.86 52.21,90.91 52.21,90.91 C52.21,90.91 51.31,89.31 51.05,87.07 C50.85,85.43 51.02,83.37 51.02,83.37 Z" fill="#E4DDA2"/>
  <path d="M55.12,93.84 C55.12,93.84 54.46,96.81 53.5,98.98 C52.44,101.37 49.98,105.46 54.98,107.36 C59.6,109.12 61.46,105.81 62.3,102.08 C63.08,98.61 63.14,95.78 63.14,95.78 C63.14,95.78 60.7,95.67 58.68,95.21 C57.06,94.82 55.12,93.84 55.12,93.84 Z" fill="#E4DDA2"/>
  <path d="M70.82,95.27 C70.82,95.27 74.13,98.16 75.18,99.63 C76.24,101.11 78.65,105.57 82.5,103.64 C85.88,101.95 83.15,96.79 81.51,94.91 C80.14,93.34 78.06,91.63 76.09,90.5 C74.77,89.75 73.65,89.56 73.65,89.56 C73.65,89.56 73.88,91.62 73.27,93.08 C72.63,94.65 70.82,95.27 70.82,95.27 Z" fill="#E4DDA2"/>
  <path d="M75.19,85.53 C75.53,86.69 76.54,86.74 78.78,85.81 C81.17,84.82 84.41,84.33 87.09,84.33 C90.26,84.33 93.35,86.44 94.48,87.36 C95.61,88.28 96.97,88.6 97.18,86.84 C97.39,85.08 96.12,83.11 93.66,81.35 C92.16,80.28 89.48,78.63 86.32,78.56 C82.95,78.49 79.84,79.69 77.87,80.95 C76.65,81.74 74.62,83.63 75.19,85.53 Z" fill="#E4DDA2"/>
</svg>
